!!!COM: Gustav Mahler
!!!CNT: Deutsch
!!!TXO: Deutsch
!!!OTL: "Nicht wiedersehen"
!!!LYR: Des Knaben Wunderhorn
!!!OPR: Des Knaben Wunderhorn, Part 1
!!!ENC: O'Neal Douglas
!!!YOR: CD Sheet Music: Late Romantic German Lieder
!!!YOR: CD Sheet Music, LLC, 2001
!!!ODT: 1890/
!!NB: Vocal melody and text encoded.
**kern	**text
*staff1	*staff1
*clefG2	*
*k[f#c#]	*
*M4/4	*
4r	.
*MM80	*
=1	=1
1r	.
=2	=2
2r	.
8r	.
{8d	{Und
8c#	nun
8B	a-
=3	=3
4f#	-de,
8r	.
8c#	mein
4c#	herz-
8c#	-al-
8d	-ler-
=4	=4
(4e	-lieb-
8d)	|
8c#	-ster
4d}	Schatz!}
{(8e	{Jetzt
8f#)	|
=5	=5
4a	muss
8g	ich
8f#	wohl
4e	schei-
8b	-den
8b	von
=6	=6
4.a	dir,
8g	von
4f#}	dir,}
{4f#	{bis
=7	=7
4dd	auf
(8cc#	den
8b)	|
4a#	an-
(8b	-dern
8cc#)	|
=8	=8
2b	Som-
4g}	-mer;}
{4b	{dann
=9	=9
4a	komm'
(8g	ich
8f#)	|
4g	wie-
8f#	-der
8e	zu
=10	=10
2.cc#}	dir!}
{4b	{A-
=11	=11
2.f#	-de!
(8ccn	A-
8b)	|
=12	=12
2.f#	-de,
4cc#	mein
=13	=13
4f#	herz-
8e	-al-
8d	-ler-
4e	-lieb-
(8d	-ster
8c#)	|
=14	=14
(4d	Schatz,
2f#)}	|}
{4b	{mein
=15	=15
4f#	herz-
8e	-al-
8d	-ler-
4d	-lieb-
(8c#	-ster
8B)	|
=16	=16
2B}	Schatz!}
8r	.
{8B	{Und
8A#	als
8B	der
=17	=17
4.c#	jun-
8c#	-ge
4c#	Knab'
4d	heim-
=18	=18
2e}	-kam,}
8r	.
{8e	{von
8c#	sej-
8d	-ner
=19	=19
4.e	Lieb-
8e	-sten
4e	fing
4f#	er
=20	=20
2g}	an:}
4r	.
{4g	{"Wo
=21	=21
4g	ist
8fn	mei-
8e	-ne
4g	Herz-
8f	-al-
8e	-ler-
=22	=22
2a	-lieb-
4g}	-ste,}
{(8b-	{die
8a)	|
=23	=23
4g	ich
4fn	ver-
4e	-las-
4d	-sen
=24	=24
2B-}	hab'?"}
2r	.
=25	=25
1r	.
=26	=26
2r	.
4r	.
{8B	{"Auf
8B	dem
=27	=27
4.c#	Kirch-
8c#	-hof
4c#	liegt
8c#	sie
8d	be-
=28	=28
(4e	-gra-
8d	|
8c#)	|
4d}	-ben,}
{(8e	{heut"
8f#)	|
=29	=29
4a	ist's
(8g	der
8f#)	|
4e	drit
4b	te
=30	=30
(4.a	Tag!
8g	|
4f#)}	|}
{4f#	{Das
=31	=31
4dd	Trau-
(8cc#	-ern
8b)	|
4a#	und
(8b	das
8cc#)	|
=32	=32
2b	Wei-
4g	-nen
4b	hat
=33	=33
4a	sie
(8g	zum
8f#)	|
4g	Tod
(8f#	ge-
8e)	|
=34	=34
2.cc#}	-bracht!"}
{4b	{A-
=35	=35
2f#	-de,
4r	.
(8ccn	a-
8b)	|
=36	=36
2f#	-de,
4r	.
(8dd	mein
8cc#)	|
=37	=37
4f#	herz-
8e	-al-
8d	-ler-
4e	-lieb-
(8d	-ster
8c#)	|
=38	=38
(4d	Schatz,
2f#)}	|}
{4b	{mein
=39	=39
4f#	herz-
8e	-al-
8d	-ler-
4e	-lieb-
(8d	-ster
8c#)	|
=40	=40
2B}	Schatz!}
8r	.
{8B	{Jetzt
8A#	will
8B	ich
=41	=41
4.c#	auf
8c#	den
4c#	Kirch-
4d	-hof
=42	=42
2e	geh'n
8r	.
8e	will
8c#	su-
8d	-chen
=43	=43
4.e	mei-
8e	-ner
4e	Lieb-
4fn	-sten
=44	=44
2g}	Grab,}
4r	.
{4g	{will
=45	=45
4g	ihr
(8fn	all'-
8e)	|
4g	-wei-
(8f	-le
8e)	|
=46	=46
2a	ru-
4g}	-fen,}
{(8fn	{ja-
8e)	|
=47	=47
2a	-ru-
4g	-fen,
(8b-	bis
8a)	|
=48	=48
4g	dass
8fn	sie
8f	mir
4e	Ant-
4d	-wort
=49	=49
2.B-}	gab!}
4r	.
=50	=50
1r	.
=51	=51
2r	.
4r	.
{(8B	{Ei
8c#)	|
=52	=52
*k[f#c#g#d#a#]	*
4.d#	du,
8d#	mein
4d#	al-
8c#	-ler-
8d#	-herz-
=53	=53
4.f#	-lieb-
8d#	-ster
4f#	Schatz,
4f#	mach'
=54	=54
4b	auf
4b	dein
4cc#	tie-
4b	-fes
=55	=55
2f#}	Grab!}
4r	.
{4b	{Du
=56	=56
4.cc#	ho2rst
8cc#	kein
(8cc#	Glo2ck-
8b)	|
(8a#	-lein
8g#)	.
=57	=57
(4.f#	la2u-
8e)	|
4d#}	-ten,}
{4f#	{du
=58	=58
4.cc#	ho2rst
8cc#	kein
(8cc#	Vo2g-
8b)	|
(8a#	-lein
8g#)	|
=59	=59
(4.f#	pfei-
8e)	|
4d#	-fen,
4f#	du
=60	=60
4g#	siehst
8f##	we-
8g#	-der
4a#	Son-
8g#	-ne
8a#	noch
=61	=61
2.cc#}	Mond!}
{4b	{A-
=62	=62
2f#	-de,
4r	.
(8ccn	a-
8b)	|
=63	=63
2f#	-de,
4r	.
4cc#	mein
=64	=64
4ff#	herz-
8ee	-al-
8ddn	-ler-
4ee	-lieb-
(8dd	-ster
8cc#)	|
=65	=65
*k[f#c#]	*
(4b	Schatz,
2a#)}	|}
{4b	{mein
=66	=66
4dd	herz-
8ccn	-al-
8b	-ler-
4cc	-lieb-
(8b	-ster
8a#)	|
=67	=67
2b	Schatz!
4r	.
(8a	A-
8g)	|
=68	=68
1f#}	-de!}
==	==
*-	*-
